X:69
T:Parson Adams
M:6/8
L:1/8
B:Thompson's Compleat Collection of 200 Favourite Country Dances, vol. 1 (London, 1757)
Z:Transcribed and edited by Fynnian Titford-Mock, 2007
Z:abc's:AK/Fiddler's Companion
K:G
g3 agf|gdc Bcd|efg dcB|ABG AFD|gfg agf|gdc Bcd|efg afd|ge^c d3:|
|:d3 ed^c|dAF DFA|=cBc a2c|{d}"tr"c3 B3|gfg agf|gdc Bcd|efg dBG|cAF G3:|

